icon-themes/breeze_svg/cmd/32/fontworkshapetype.fontwork-arch-right-curve.svg

<svg viewBox="0 0 32 32" xmlns="http://www.w3.org/2000/svg"><path d="m12.097656 4-2.097656 3.4101562c4.95614 1.9763101 7.386809 5.7610178 6.974609 9.3984378-.40332 3.55909-3.161693 6.555165-6.964843 7.796875l2.08789 3.394531c5.23885-2.23472 8.826172-6.753187 8.826172-11.998047v-.003906c0-1.25203-.209277-2.461275-.591797-3.609375-1.04097-2.8680501-3.220923-5.4760676-6.121093-7.3046876-.04883-.0293-.095332-.0609438-.144532-.0898438-.06299-.03883-.129759-.0732281-.193359-.1113281-.56724-.32341-1.159351-.6200225-1.775391-.8828125z" fill="#4d4d4d"/></svg>

<svg xmlns="http://www.w3.org/2000/svg" viewBox="0 0 32 32">
 <path 
     style="fill:#4d4d4d" 
     d="M 12.097656 4 L 10 7.4101562 C 14.95614 9.3864663 17.386809 13.171174 16.974609 16.808594 C 16.571289 20.367684 13.812916 23.363759 10.009766 24.605469 L 12.097656 28 C 17.336506 25.76528 20.923828 21.246813 20.923828 16.001953 L 20.923828 15.998047 C 20.923828 14.746017 20.714551 13.536772 20.332031 12.388672 C 19.291061 9.5206219 17.111108 6.9126044 14.210938 5.0839844 C 14.162108 5.0546844 14.115606 5.0230406 14.066406 4.9941406 C 14.003416 4.9553106 13.936647 4.9209125 13.873047 4.8828125 C 13.305807 4.5594025 12.713696 4.26279 12.097656 4 z "
     />
</svg>
